svg/emoji_u1f973.svg

<svg width="128" height="128" viewBox="0 0 128 128" fill="none" xmlns="http://www.w3.org/2000/svg">
<path d="M63.6 124.8C38.79 124.8 12 109.24 12 75.0899C12 40.9399 38.79 25.3799 63.6 25.3799C77.38 25.3799 90.1 29.9099 99.53 38.1799C109.75 47.2599 115.18 60.0599 115.18 75.0899C115.18 90.1199 109.75 102.84 99.53 111.91C90.1 120.18 77.29 124.8 63.6 124.8Z" fill="url(#paint0_radial_2471_1792)" style=""/>
<path d="M106.19 45.54C111.07 53.64 113.57 62.96 113.4 72.42C113.4 87.42 107.97 100.17 97.75 109.24C88.32 117.51 75.52 122.13 61.82 122.13C45.76 122.13 28.89 115.6 18.98 101.73C28.55 117.44 46.54 124.8 63.6 124.8C77.29 124.8 90.1 120.18 99.53 111.91C109.75 102.83 115.18 90.12 115.18 75.09C115.18 63.76 112.09 53.69 106.19 45.54Z" fill="#EB8F00" style="fill:#EB8F00;fill:color(display-p3 0.9216 0.5608 0.0000);fill-opacity:1;"/>
<path opacity="0.8" d="M33.8 88.0996C43.465 88.0996 51.3 80.7123 51.3 71.5996C51.3 62.4869 43.465 55.0996 33.8 55.0996C24.1351 55.0996 16.3 62.4869 16.3 71.5996C16.3 80.7123 24.1351 88.0996 33.8 88.0996Z" fill="url(#paint1_radial_2471_1792)" style=""/>
<path opacity="0.8" d="M94.2 88.0996C103.865 88.0996 111.7 80.7123 111.7 71.5996C111.7 62.4869 103.865 55.0996 94.2 55.0996C84.535 55.0996 76.7 62.4869 76.7 71.5996C76.7 80.7123 84.535 88.0996 94.2 88.0996Z" fill="url(#paint2_radial_2471_1792)" style=""/>
<path d="M96.5 20C100.366 20 103.5 17.7614 103.5 15C103.5 12.2386 100.366 10 96.5 10C92.634 10 89.5 12.2386 89.5 15C89.5 17.7614 92.634 20 96.5 20Z" fill="#FF00A2" style="fill:#FF00A2;fill:color(display-p3 1.0000 0.0000 0.6353);fill-opacity:1;"/>
<path d="M76.4069 29.2702C78.047 27.63 77.6355 24.5592 75.4876 22.4113C73.3398 20.2635 70.2689 19.8519 68.6288 21.4921C66.9886 23.1323 67.4001 26.2031 69.548 28.351C71.6958 30.4988 74.7667 30.9104 76.4069 29.2702Z" fill="#FD3B3B" style="fill:#FD3B3B;fill:color(display-p3 0.9922 0.2314 0.2314);fill-opacity:1;"/>
<path d="M61.7215 13.0095C65.3902 10.1699 67.2955 6.48706 65.9771 4.78375C64.6587 3.08043 60.6158 4.00162 56.9472 6.84127C53.2785 9.68092 51.3732 13.3637 52.6916 15.067C54.01 16.7703 58.0529 15.8492 61.7215 13.0095Z" fill="#00EEFF" style="fill:#00EEFF;fill:color(display-p3 0.0000 0.9333 1.0000);fill-opacity:1;"/>
<path d="M25.9582 87.3056C27.3452 86.5047 27.0145 83.3354 25.2196 80.2266C23.4247 77.1177 20.8452 75.2467 19.4582 76.0476C18.0712 76.8484 18.4019 80.0177 20.1968 83.1266C21.9917 86.2354 24.5712 88.1064 25.9582 87.3056Z" fill="#0048FF" style="fill:#0048FF;fill:color(display-p3 0.0000 0.2824 1.0000);fill-opacity:1;"/>
<path d="M96.5 116C98.433 116 100 113.538 100 110.5C100 107.462 98.433 105 96.5 105C94.567 105 93 107.462 93 110.5C93 113.538 94.567 116 96.5 116Z" fill="#F63BBE" style="fill:#F63BBE;fill:color(display-p3 0.9647 0.2314 0.7451);fill-opacity:1;"/>
<path d="M116.53 58.7296C119.465 56.6633 121.33 54.256 120.694 53.3528C120.058 52.4496 117.163 53.3925 114.228 55.4588C111.292 57.5251 109.428 59.9324 110.064 60.8356C110.7 61.7388 113.595 60.7959 116.53 58.7296Z" fill="#00CC00" style="fill:#00CC00;fill:color(display-p3 0.0000 0.8000 0.0000);fill-opacity:1;"/>
<path d="M22.4803 121.036C23.6347 120.278 23.0969 117.418 21.279 114.648C19.4611 111.877 17.0515 110.245 15.8971 111.003C14.7427 111.76 15.2806 114.62 17.0985 117.391C18.9164 120.161 21.3259 121.793 22.4803 121.036Z" fill="#0048FF" style="fill:#0048FF;fill:color(display-p3 0.0000 0.2824 1.0000);fill-opacity:1;"/>
<path d="M15.1771 101.495C18.4826 101.26 21.0829 99.9535 20.9851 98.5763C20.8874 97.199 18.1286 96.2727 14.8231 96.5073C11.5177 96.7419 8.91738 98.0486 9.01513 99.4259C9.11289 100.803 11.8717 101.729 15.1771 101.495Z" fill="#7ACDED" style="fill:#7ACDED;fill:color(display-p3 0.4784 0.8039 0.9294);fill-opacity:1;"/>
<path d="M24.1187 88.3978C28.0864 88.1338 31.2523 87.1603 31.1899 86.2235C31.1276 85.2867 27.8606 84.7413 23.8929 85.0053C19.9252 85.2694 16.7593 86.2428 16.8216 87.1797C16.884 88.1165 20.151 88.6619 24.1187 88.3978Z" fill="#FF82B2" style="fill:#FF82B2;fill:color(display-p3 1.0000 0.5098 0.6980);fill-opacity:1;"/>
<path d="M118.9 78.1997C118.05 75.2597 116.02 72.7997 113.3 71.3997C108.7 68.8997 102.94 70.6097 100.45 75.2097C100.43 75.2397 100.42 75.2697 100.4 75.2997C98.32 79.2197 99.79 84.0897 103.7 86.1997C105.25 87.0697 107.07 87.3197 108.8 86.8997C110.58 86.4997 112.08 85.3297 112.9 83.6997C113.79 81.8197 113.71 79.6197 112.7 77.7997C111.88 76.1997 110.29 75.1397 108.5 74.9997C107.47 74.9797 106.63 75.7997 106.61 76.8297C106.6 77.7597 107.28 78.5597 108.2 78.6997C108.71 78.7297 109.17 79.0397 109.4 79.4997C109.75 80.2097 109.82 81.0397 109.6 81.7997C109.26 82.4697 108.64 82.9497 107.9 83.0997C107.09 83.3097 106.23 83.1997 105.5 82.7997C104.5 82.2697 103.75 81.3697 103.4 80.2997C103.1 79.1997 103.21 78.0297 103.7 76.9997C104.4 75.6397 105.63 74.6197 107.1 74.1997C108.57 73.7797 110.13 73.9197 111.5 74.5997C113.29 75.5797 114.62 77.2397 115.2 79.1997C115.81 81.1697 115.59 83.2997 114.6 85.0997C112.7 88.6997 109 91.0997 103.6 91.0997C100.5 91.0997 82.05 90.5997 82.05 90.5997L82.27 95.1997L103.4 94.8997C109.7 94.8997 114.9 92.3997 117.9 86.7997C119.48 84.2197 119.84 81.0697 118.9 78.1997Z" fill="url(#paint3_linear_2471_1792)" style=""/>
<path d="M69.9999 92.9998C70.6099 93.6498 71.0799 94.4098 71.3999 95.2398L82.8499 95.1698C82.8499 93.6698 82.6499 92.1698 82.6499 90.5698C79.6499 90.4698 73.4699 90.3698 71.5499 90.2998C71.2699 91.3298 70.7199 92.2698 69.9399 92.9998H69.9999Z" fill="#7F0099" style="fill:#7F0099;fill:color(display-p3 0.4980 0.0000 0.6000);fill-opacity:1;"/>
<path d="M21.8046 54.8005L18.3046 55.3005L17.4046 51.8005L16.9046 49.8005L37.0046 47.0005C27.9046 53.9005 22.4046 54.8005 21.8046 54.8005Z" fill="#265AD1" style="fill:#265AD1;fill:color(display-p3 0.1490 0.3529 0.8196);fill-opacity:1;"/>
<path d="M5.70469 5.40039L13.8047 10.0004L15.8047 11.1004L7.40469 12.3004C6.80469 9.80039 5.70469 5.40039 5.70469 5.40039Z" fill="#265AD1" style="fill:#265AD1;fill:color(display-p3 0.1490 0.3529 0.8196);fill-opacity:1;"/>
<path d="M23.6048 15.5005L31.9048 20.2005L10.2048 23.3005L8.80478 17.6005L23.6048 15.5005Z" fill="#265AD1" style="fill:#265AD1;fill:color(display-p3 0.1490 0.3529 0.8196);fill-opacity:1;"/>
<path d="M47.3048 28.9006H47.4048L12.9048 33.9006L11.6048 28.6006L39.7048 24.6006L47.3048 28.9006Z" fill="#265AD1" style="fill:#265AD1;fill:color(display-p3 0.1490 0.3529 0.8196);fill-opacity:1;"/>
<path d="M44.4048 40.4006L15.6048 44.5006L14.2048 39.1006L48.9048 34.1006C48.5048 35.2006 47.3048 37.4006 44.4048 40.4006Z" fill="#265AD1" style="fill:#265AD1;fill:color(display-p3 0.1490 0.3529 0.8196);fill-opacity:1;"/>
<path d="M39.7046 24.6002L11.6046 28.6002L10.2046 23.3002L31.9046 20.2002L39.7046 24.6002Z" fill="#FF64D0" style="fill:#FF64D0;fill:color(display-p3 1.0000 0.3922 0.8157);fill-opacity:1;"/>
<path d="M8.00459 14.5002C8.00459 14.5002 7.70459 13.1002 7.50459 12.4002L15.9046 11.2002L23.7046 15.6002L8.90459 17.7002L8.00459 14.5002Z" fill="#FF64D0" style="fill:#FF64D0;fill:color(display-p3 1.0000 0.3922 0.8157);fill-opacity:1;"/>
<path d="M50.3047 30.5005L49.2047 33.7005C49.1647 33.8805 49.0947 34.0505 49.0047 34.2005L14.3047 39.2005L13.0047 33.9005L47.5047 29.0005L50.3047 30.5005Z" fill="#FF64D0" style="fill:#FF64D0;fill:color(display-p3 1.0000 0.3922 0.8157);fill-opacity:1;"/>
<path d="M37.4048 46.7005C37.3048 46.8005 37.1048 46.9005 37.0048 47.0005L16.9048 49.9005L15.6048 44.6005L44.4048 40.5005C42.2148 42.7205 39.8748 44.7905 37.4048 46.7005Z" fill="#FF64D0" style="fill:#FF64D0;fill:color(display-p3 1.0000 0.3922 0.8157);fill-opacity:1;"/>
<path d="M71.8399 91.8296C73.3099 90.5596 74.23 88.7696 74.41 86.8296C74.69 84.8796 74.1099 82.9096 72.8099 81.4296C70.4799 78.3696 64 79.1296 64 79.1296C62.26 79.1996 60.25 80.0296 60.5 82.0296C60.83 83.1796 61.7599 84.0596 62.9199 84.3196C65.4799 84.9296 69.13 84.3196 69.23 86.9196C69.35 89.8396 64.87 88.6396 64.51 91.7296C64.15 94.8196 69.23 94.4096 69.23 96.5396C69.23 98.1696 67.56 98.4496 65.8 98.8196C64.29 99.1296 61.39 99.5996 61.16 101.33C60.93 103.06 61.92 105.19 66 104.57C72.42 103.57 74.58 100.08 74.58 97.9196C74.62 95.5796 73.6199 93.3496 71.8399 91.8296Z" fill="#422B0D" style="fill:#422B0D;fill:color(display-p3 0.2588 0.1686 0.0510);fill-opacity:1;"/>
<path d="M49.8601 65.4296L49.7101 65.2396L49.3101 64.7296L48.8001 64.1796C48.6001 63.9596 48.3601 63.7196 48.1201 63.4796C47.8701 63.2396 47.6101 63.0096 47.3301 62.7996C47.0801 62.6096 46.8201 62.4396 46.5401 62.2896C46.3501 62.1796 46.1401 62.0996 45.9201 62.0596C45.8501 62.0496 45.7901 62.0496 45.7201 62.0596C45.7201 62.0596 45.7201 62.0596 45.6401 62.0596H45.8201H45.3001H45.3701C45.3301 62.0496 45.3001 62.0496 45.2601 62.0596C45.0401 62.0996 44.8301 62.1796 44.6401 62.2896C44.3601 62.4396 44.1001 62.6096 43.8501 62.7996C43.5901 62.9996 43.3201 63.2396 43.0601 63.4796C42.5701 63.9596 42.1401 64.4796 41.8401 64.7896L41.3601 65.3596L41.1401 65.6096C39.7801 67.1196 37.5001 67.3596 35.8501 66.1796C34.8001 65.4496 34.2601 64.1796 34.4601 62.9096C34.4601 62.9096 34.5301 62.5296 34.7101 61.9096C34.9901 60.9496 35.3901 60.0296 35.8901 59.1696C36.6701 57.7496 37.7301 56.4996 39.0001 55.4996C39.8701 54.8396 40.8301 54.3096 41.8601 53.9396C42.1401 53.8296 42.4401 53.7396 42.7301 53.6696C43.0601 53.5696 43.3901 53.4996 43.7301 53.4496L44.3101 53.3696H44.7901H45.3101H46.0501H46.5301C46.8401 53.3696 47.1601 53.4496 47.4701 53.4996C48.0801 53.6096 48.6701 53.7696 49.2501 53.9796C50.2801 54.3496 51.2401 54.8796 52.1101 55.5396C53.4001 56.5196 54.4901 57.7496 55.2901 59.1596C55.5801 59.6496 55.8401 60.1696 56.0501 60.6996C56.2401 61.1396 56.3801 61.6096 56.5001 61.9596C56.6201 62.3096 56.6101 62.4796 56.6501 62.6496V62.8796C56.9201 64.8096 55.5701 66.5996 53.6401 66.8696C53.6001 66.8796 53.5601 66.8796 53.5301 66.8796C52.1401 67.0896 50.7301 66.5396 49.8601 65.4296Z" fill="#422B0D" style="fill:#422B0D;fill:color(display-p3 0.2588 0.1686 0.0510);fill-opacity:1;"/>
<path d="M87 65.4296L86.85 65.2396L86.45 64.7296L86 64.1796C85.8 63.9596 85.56 63.7196 85.32 63.4796C85.07 63.2396 84.81 63.0096 84.53 62.7996C84.28 62.6096 84.02 62.4396 83.74 62.2896C83.55 62.1796 83.34 62.0996 83.13 62.0596C83.06 62.0496 83 62.0496 82.93 62.0596C82.93 62.0596 82.87 62.0596 82.85 62.0596H83H82.48H82.55H82.44C82.23 62.0996 82.02 62.1796 81.83 62.2896C81.55 62.4396 81.29 62.6096 81.04 62.7996C80.76 63.0096 80.5 63.2396 80.25 63.4796C79.75 63.9596 79.33 64.4796 79.02 64.7896L78.54 65.3596L78.32 65.6096C76.96 67.1196 74.68 67.3596 73.03 66.1796C71.98 65.4496 71.44 64.1796 71.64 62.9096C71.64 62.9096 71.71 62.5296 71.9 61.9096C72.15 60.9396 72.52 59.9996 73 59.1196C73.8 57.7096 74.89 56.4796 76.18 55.4996C77.05 54.8396 78.02 54.3096 79.05 53.9396C79.33 53.8296 79.62 53.7396 79.91 53.6696C80.24 53.5696 80.57 53.4996 80.91 53.4496L81.49 53.3696H81.97H82.49H83.23H83.71C84.03 53.3696 84.34 53.4496 84.65 53.4996C86.34 53.7896 87.93 54.4796 89.3 55.4996C90.59 56.4796 91.67 57.7096 92.48 59.1196C92.77 59.6096 93.02 60.1296 93.23 60.6596C93.41 61.0696 93.56 61.4896 93.68 61.9196C93.75 62.1496 93.8 62.3796 93.83 62.6096V62.8396C94.11 64.7596 92.77 66.5496 90.85 66.8196C90.81 66.8296 90.77 66.8296 90.72 66.8396C89.32 67.0596 87.9 66.5296 87 65.4296Z" fill="#422B0D" style="fill:#422B0D;fill:color(display-p3 0.2588 0.1686 0.0510);fill-opacity:1;"/>
<defs>
<radialGradient id="paint0_radial_2471_1792" cx="0" cy="0" r="1" gradientUnits="userSpaceOnUse" gradientTransform="translate(63.59 75.09) scale(50.6587 50.6587)">
<stop offset="0.5" stop-color="#FDE030" style="stop-color:#FDE030;stop-color:color(display-p3 0.9922 0.8784 0.1882);stop-opacity:1;"/>
<stop offset="0.92" stop-color="#F7C02B" style="stop-color:#F7C02B;stop-color:color(display-p3 0.9686 0.7529 0.1686);stop-opacity:1;"/>
<stop offset="1" stop-color="#F4A223" style="stop-color:#F4A223;stop-color:color(display-p3 0.9569 0.6353 0.1373);stop-opacity:1;"/>
</radialGradient>
<radialGradient id="paint1_radial_2471_1792" cx="0" cy="0" r="1" gradientUnits="userSpaceOnUse" gradientTransform="translate(33.8 75.1188) scale(19.0478 17.1041)">
<stop stop-color="#ED7770" style="stop-color:#ED7770;stop-color:color(display-p3 0.9294 0.4667 0.4392);stop-opacity:1;"/>
<stop offset="0.9" stop-color="#ED7770" stop-opacity="0" style="stop-color:none;stop-opacity:0;"/>
</radialGradient>
<radialGradient id="paint2_radial_2471_1792" cx="0" cy="0" r="1" gradientUnits="userSpaceOnUse" gradientTransform="translate(126.52 1172.59) scale(19.43)">
<stop stop-color="#ED7770" style="stop-color:#ED7770;stop-color:color(display-p3 0.9294 0.4667 0.4392);stop-opacity:1;"/>
<stop offset="0.9" stop-color="#ED7770" stop-opacity="0" style="stop-color:none;stop-opacity:0;"/>
</radialGradient>
<linearGradient id="paint3_linear_2471_1792" x1="82.19" y1="82.7252" x2="119.38" y2="82.7252" gradientUnits="userSpaceOnUse">
<stop stop-color="#004054" style="stop-color:#004054;stop-color:color(display-p3 0.0000 0.2510 0.3294);stop-opacity:1;"/>
<stop offset="0.99" stop-color="#45A4FF" style="stop-color:#45A4FF;stop-color:color(display-p3 0.2706 0.6431 1.0000);stop-opacity:1;"/>
</linearGradient>
</defs>
</svg>

<?xml version="1.0" encoding="utf-8"?>
<!-- Generator: Adobe Illustrator 24.1.2, SVG Export Plug-In . SVG Version: 6.00 Build 0)  -->
<svg version="1.1" id="Layer_1" xmlns="http://www.w3.org/2000/svg" xmlns:xlink="http://www.w3.org/1999/xlink" x="0px" y="0px"
	 viewBox="0 0 128 128" style="enable-background:new 0 0 128 128;" xml:space="preserve">
<g id="gold">
	
		<radialGradient id="face_1_" cx="63.59" cy="3189.0901" r="50.6587" gradientTransform="matrix(1 0 0 1 0 -3114)" gradientUnits="userSpaceOnUse">
		<stop  offset="0.5" style="stop-color:#FDE030"/>
		<stop  offset="0.92" style="stop-color:#F7C02B"/>
		<stop  offset="1" style="stop-color:#F4A223"/>
	</radialGradient>
	<path id="face" style="fill:url(#face_1_);" d="M63.6,124.8c-24.81,0-51.6-15.56-51.6-49.71s26.79-49.71,51.6-49.71
		c13.78,0,26.5,4.53,35.93,12.8c10.22,9.08,15.65,21.88,15.65,36.91s-5.43,27.75-15.65,36.82C90.1,120.18,77.29,124.8,63.6,124.8z"
		/>
	<path style="fill:#EB8F00;" d="M106.19,45.54c4.88,8.1,7.38,17.42,7.21,26.88c0,15-5.43,27.75-15.65,36.82
		c-9.43,8.27-22.23,12.89-35.93,12.89c-16.06,0-32.93-6.53-42.84-20.4c9.57,15.71,27.56,23.07,44.62,23.07
		c13.69,0,26.5-4.62,35.93-12.89c10.22-9.08,15.65-21.79,15.65-36.82C115.18,63.76,112.09,53.69,106.19,45.54z"/>
</g>
<g id="facial_expressions">
	<g id="face-with-party-horn-and-party-hat">
		<g id="blush">
			
				<radialGradient id="SVGID_1_" cx="69.6326" cy="-1087.7263" r="19.4365" gradientTransform="matrix(0.98 0 0 -0.88 -34.44 -882.08)" gradientUnits="userSpaceOnUse">
				<stop  offset="0" style="stop-color:#ED7770"/>
				<stop  offset="0.9" style="stop-color:#ED7770;stop-opacity:0"/>
			</radialGradient>
			<ellipse style="opacity:0.8;fill:url(#SVGID_1_);enable-background:new    ;" cx="33.8" cy="71.6" rx="17.5" ry="16.5"/>
			
				<radialGradient id="SVGID_2_" cx="126.52" cy="-1042.59" r="19.43" gradientTransform="matrix(1 0 0 -1 0 130)" gradientUnits="userSpaceOnUse">
				<stop  offset="0" style="stop-color:#ED7770"/>
				<stop  offset="0.9" style="stop-color:#ED7770;stop-opacity:0"/>
			</radialGradient>
			<ellipse style="opacity:0.8;fill:url(#SVGID_2_);enable-background:new    ;" cx="94.2" cy="71.6" rx="17.5" ry="16.5"/>
		</g>
		<g id="prop">
			<g id="confetti">
				<ellipse style="fill:#FF00A2;" cx="24" cy="15" rx="7" ry="5"/>
				
					<ellipse transform="matrix(0.7071 -0.7071 0.7071 0.7071 -3.4319 42.4789)" style="fill:#FD3B3B;" cx="49.56" cy="25.38" rx="4.2" ry="5.5"/>
				
					<ellipse transform="matrix(0.7908 -0.6121 0.6121 0.7908 4.0229 48.1947)" style="fill:#00EEFF;" cx="72.51" cy="18.21" rx="8.4" ry="3.9"/>
				
					<ellipse transform="matrix(0.866 -0.5 0.5 0.866 -37.7988 22.297)" style="fill:#0048FF;" cx="22.71" cy="81.68" rx="2.9" ry="6.5"/>
				<ellipse style="fill:#F63BBE;" cx="96.5" cy="110.5" rx="3.5" ry="5.5"/>
				
					<ellipse transform="matrix(0.8177 -0.5756 0.5756 0.8177 -11.8342 76.8165)" style="fill:#00CC00;" cx="115.38" cy="57.1" rx="6.5" ry="2"/>
				
					<ellipse transform="matrix(0.8361 -0.5486 0.5486 0.8361 -60.5046 29.5428)" style="fill:#0048FF;" cx="19.19" cy="116.02" rx="2.5" ry="6"/>
				
					<ellipse transform="matrix(0.9975 -0.0708 0.0708 0.9975 -6.9716 1.3106)" style="fill:#7ACDED;" cx="15" cy="99" rx="6" ry="2.5"/>
				
					<ellipse transform="matrix(0.9978 -0.0664 0.0664 0.9978 -5.7082 1.7869)" style="fill:#FF82B2;" cx="24.01" cy="86.7" rx="7.2" ry="1.7"/>
				
					<linearGradient id="SVGID_3_" gradientUnits="userSpaceOnUse" x1="82.19" y1="-902.7255" x2="119.38" y2="-902.7255" gradientTransform="matrix(1 0 0 -1 0 -820)">
					<stop  offset="0" style="stop-color:#004054"/>
					<stop  offset="0.99" style="stop-color:#45A4FF"/>
				</linearGradient>
				<path style="fill:url(#SVGID_3_);" d="M118.9,78.2c-0.85-2.94-2.88-5.4-5.6-6.8c-4.6-2.5-10.36-0.79-12.85,3.81
					c-0.02,0.03-0.03,0.06-0.05,0.09c-2.08,3.92-0.61,8.79,3.3,10.9c1.55,0.87,3.37,1.12,5.1,0.7c1.78-0.4,3.28-1.57,4.1-3.2
					c0.89-1.88,0.81-4.08-0.2-5.9c-0.82-1.6-2.41-2.66-4.2-2.8c-1.03-0.02-1.87,0.8-1.89,1.83c-0.01,0.93,0.67,1.73,1.59,1.87
					c0.51,0.03,0.97,0.34,1.2,0.8c0.35,0.71,0.42,1.54,0.2,2.3c-0.34,0.67-0.96,1.15-1.7,1.3c-0.81,0.21-1.67,0.1-2.4-0.3
					c-1-0.53-1.75-1.43-2.1-2.5c-0.3-1.1-0.19-2.27,0.3-3.3c0.7-1.36,1.93-2.38,3.4-2.8c1.47-0.42,3.03-0.28,4.4,0.4
					c1.79,0.98,3.12,2.64,3.7,4.6c0.61,1.97,0.39,4.1-0.6,5.9c-1.9,3.6-5.6,6-11,6c-3.1,0-21.55-0.5-21.55-0.5l0.22,4.6l21.13-0.3
					c6.3,0,11.5-2.5,14.5-8.1C119.48,84.22,119.84,81.07,118.9,78.2z"/>
				<path style="fill:#7F0099;" d="M70,93c0.61,0.65,1.08,1.41,1.4,2.24l11.45-0.07c0-1.5-0.2-3-0.2-4.6c-3-0.1-9.18-0.2-11.1-0.27
					c-0.28,1.03-0.83,1.97-1.61,2.7H70z"/>
				<path style="fill:#422B0D;" d="M63.52,81.18"/>
			</g>
			<g id="hat">
				<path style="fill:#FF4545;" d="M104.8,54.8l3.5,0.5l0.9-3.5l0.5-2L89.6,47C98.7,53.9,104.2,54.8,104.8,54.8z"/>
				<path style="fill:#FF4545;" d="M120.9,5.4l-8.1,4.6l-2,1.1l8.4,1.2C119.8,9.8,120.9,5.4,120.9,5.4z"/>
				<polygon style="fill:#FF4545;" points="103,15.5 94.7,20.2 116.4,23.3 117.8,17.6 				"/>
				<polygon style="fill:#FF4545;" points="79.3,28.9 79.2,28.9 113.7,33.9 115,28.6 86.9,24.6 				"/>
				<path style="fill:#FF4545;" d="M82.2,40.4l28.8,4.1l1.4-5.4l-34.7-5C78.1,35.2,79.3,37.4,82.2,40.4z"/>
				<polygon style="fill:#FF9C9C;" points="86.9,24.6 115,28.6 116.4,23.3 94.7,20.2 				"/>
				<path style="fill:#FF9C9C;" d="M118.6,14.5c0,0,0.3-1.4,0.5-2.1l-8.4-1.2l-7.8,4.4l14.8,2.1L118.6,14.5z"/>
				<path style="fill:#FF9C9C;" d="M76.3,30.5l1.1,3.2c0.04,0.18,0.11,0.35,0.2,0.5l34.7,5l1.3-5.3L79.1,29L76.3,30.5z"/>
				<path style="fill:#FF9C9C;" d="M89.2,46.7c0.1,0.1,0.3,0.2,0.4,0.3l20.1,2.9l1.3-5.3l-28.8-4.1
					C84.39,42.72,86.73,44.79,89.2,46.7z"/>
				<circle style="fill:#C93737;" cx="120.8" cy="6.5" r="4.8"/>
			</g>
		</g>
	</g>
	<path style="fill:#422B0D;" d="M71.84,91.83c1.47-1.27,2.39-3.06,2.57-5c0.28-1.95-0.3-3.92-1.6-5.4c-2.33-3.06-8.81-2.3-8.81-2.3
		c-1.74,0.07-3.75,0.9-3.5,2.9c0.33,1.15,1.26,2.03,2.42,2.29c2.56,0.61,6.21,0,6.31,2.6c0.12,2.92-4.36,1.72-4.72,4.81
		s4.72,2.68,4.72,4.81c0,1.63-1.67,1.91-3.43,2.28c-1.51,0.31-4.41,0.78-4.64,2.51s0.76,3.86,4.84,3.24c6.42-1,8.58-4.49,8.58-6.65
		C74.62,95.58,73.62,93.35,71.84,91.83z"/>
	<g id="smiling-eyes-grinning-face">
		<g id="eyes">
			<path style="fill:#422B0D;" d="M49.86,65.43l-0.15-0.19l-0.4-0.51l-0.51-0.55c-0.2-0.22-0.44-0.46-0.68-0.7
				c-0.25-0.24-0.51-0.47-0.79-0.68c-0.25-0.19-0.51-0.36-0.79-0.51c-0.19-0.11-0.4-0.19-0.62-0.23c-0.07-0.01-0.13-0.01-0.2,0
				c0,0,0,0-0.08,0h0.18H45.3c-0.13,0,0,0,0,0h0.07c0.08,0,0,0,0,0c-0.04-0.01-0.07-0.01-0.11,0c-0.22,0.04-0.43,0.12-0.62,0.23
				c-0.28,0.15-0.54,0.32-0.79,0.51c-0.26,0.2-0.53,0.44-0.79,0.68c-0.49,0.48-0.92,1-1.22,1.31l-0.48,0.57l-0.22,0.25
				c-1.36,1.51-3.64,1.75-5.29,0.57c-1.05-0.73-1.59-2-1.39-3.27c0,0,0.07-0.38,0.25-1c0.28-0.96,0.68-1.88,1.18-2.74
				c0.78-1.42,1.84-2.67,3.11-3.67c0.87-0.66,1.83-1.19,2.86-1.56c0.28-0.11,0.58-0.2,0.87-0.27c0.33-0.1,0.66-0.17,1-0.22
				l0.58-0.08h0.48h0.52h0.74h0.48c0.31,0,0.63,0.08,0.94,0.13c0.61,0.11,1.2,0.27,1.78,0.48c1.03,0.37,1.99,0.9,2.86,1.56
				c1.29,0.98,2.38,2.21,3.18,3.62c0.29,0.49,0.55,1.01,0.76,1.54c0.19,0.44,0.33,0.91,0.45,1.26s0.11,0.52,0.15,0.69v0.23
				c0.27,1.93-1.08,3.72-3.01,3.99c-0.04,0.01-0.08,0.01-0.11,0.01C52.14,67.09,50.73,66.54,49.86,65.43z"/>
			<path style="fill:#422B0D;" d="M87,65.43l-0.15-0.19l-0.4-0.51L86,64.18c-0.2-0.22-0.44-0.46-0.68-0.7
				c-0.25-0.24-0.51-0.47-0.79-0.68c-0.25-0.19-0.51-0.36-0.79-0.51c-0.19-0.11-0.4-0.19-0.61-0.23c-0.07-0.01-0.13-0.01-0.2,0
				c0,0-0.06,0-0.08,0H83h-0.52c-0.14,0,0,0,0,0h0.07c0.08,0,0,0,0,0h-0.11c-0.21,0.04-0.42,0.12-0.61,0.23
				c-0.28,0.15-0.54,0.32-0.79,0.51c-0.28,0.21-0.54,0.44-0.79,0.68c-0.5,0.48-0.92,1-1.23,1.31l-0.48,0.57l-0.22,0.25
				c-1.36,1.51-3.64,1.75-5.29,0.57c-1.05-0.73-1.59-2-1.39-3.27c0,0,0.07-0.38,0.26-1c0.25-0.97,0.62-1.91,1.1-2.79
				c0.8-1.41,1.89-2.64,3.18-3.62c0.87-0.66,1.84-1.19,2.87-1.56c0.28-0.11,0.57-0.2,0.86-0.27c0.33-0.1,0.66-0.17,1-0.22l0.58-0.08
				h0.48h0.52h0.74h0.48c0.32,0,0.63,0.08,0.94,0.13c1.69,0.29,3.28,0.98,4.65,2c1.29,0.98,2.37,2.21,3.18,3.62
				c0.29,0.49,0.54,1.01,0.75,1.54c0.18,0.41,0.33,0.83,0.45,1.26c0.07,0.23,0.12,0.46,0.15,0.69v0.23
				c0.28,1.92-1.06,3.71-2.98,3.98c-0.04,0.01-0.08,0.01-0.13,0.02C89.32,67.06,87.9,66.53,87,65.43z"/>
		</g>
	</g>
</g>
</svg>
